X: 1059
T: Hicazkâr Seyir
C: Rauf Yektâ
O: Turkey
F: http://compmusic.upf.edu/node/140
N: hicazkar--seyir--semai--1--rauf_yekta
N: makam= hicazkar
N: form= seyir
N: usul= semai = 3/4
M: 3/4
L: 1/16
K: C _1/4B _7/8e _7/8A ^f
Q: 1/4=120
%%MIDI tuningsystem comma53
g8 f4  | g8 _7/8b4  | =a8 g4  | f4 _1/4e4 d4  | \
w:   |   |   |   | 
c4 d4 _1/4e4  | f4 g4 =a2_7/8b2  | =a4 g4 f4  | \
w:   |   |   | 
g8 z4  | 
w:   | 
g8 c'4  | c'8 _7/8b4  | _7/8b4 =a4 g4  | \
w:   |   |   | 
f4 _1/4e4 d4  | c4 d4 _1/4e4  | f4 g6f2  | \
w:   |   |   | 
f4 _1/4e6d2  | d8 z4  | 
w:   |   | 
c8 g4  | g8 =f4  | =f8 _e4  | _e8 =f4  | g8 =a4  | \
w:   |   |   |   |   | 
_7/8b4 g6=f2  | =f4 _e6d2  | d8 z4  | c8 d4  | \
w:   |   |   |   | 
_e4 d4 c4  | 
w:   | 
B8 A4  | G8 z4  | c8 B4  | A4 G4 A4  | G2F2 _1/4E4 F4  | \
w:   |   |   |   |   | 
G8 z4  | |


